symbols/web/format_clear/materialsymbolsoutlined/format_clear_wght300grad200_40px.svg

<svg xmlns="http://www.w3.org/2000/svg" height="40" width="40"><path d="M21.125 17.667 18.5 15.083l1.167-2.75h-3.875l-3.5-3.416H32.75v3.375h-9.333Zm11.833 18.5L19.167 22.375l-3.75 8.833h-3.709l4.875-11.416L3.667 6.875l1.5-1.5L34.5 34.667Z"/></svg>

<svg xmlns="http://www.w3.org/2000/svg" height="40" width="40"><path d="M21.125 17.667 18.5 15.083 19.667 12.333H15.792L12.292 8.917H32.75V12.292H23.417ZM32.958 36.167 19.167 22.375 15.417 31.208H11.708L16.583 19.792L3.667 6.875L5.167 5.375L34.5 34.667Z"/></svg>
